assets/medium.svg

<svg fill="none" height="24" viewBox="0 0 30 24" width="30" xmlns="http://www.w3.org/2000/svg"><path d="m8.46094 3.48102c-4.67283 0-8.46094 3.81427-8.46094 8.51898 0 4.7047 3.78839 8.519 8.46094 8.519 4.67256 0 8.46096-3.814 8.46096-8.519s-3.7879-8.51898-8.46096-8.51898zm13.51176.49903c-2.3365 0-4.2303 3.59152-4.2303 8.02005 0 4.4286 1.8941 8.0203 4.2305 8.0203 2.3365 0 4.2306-3.5915 4.2306-8.0203h-.0004c0-4.4298-1.8937-8.02005-4.2303-8.02005zm6.5393.83536c-.8215 0-1.4876 3.21694-1.4876 7.18469 0 3.9678.6656 7.1848 1.4876 7.1848s1.488-3.2178 1.488-7.1849c0-3.96793-.6663-7.18459-1.4879-7.18459z" fill="#000"/></svg>

<svg width="30" height="24" viewBox="0 0 30 24" fill="none" xmlns="http://www.w3.org/2000/svg">
<path d="M8.46094 3.48102C3.78811 3.48102 0 7.29529 0 12C0 16.7047 3.78839 20.519 8.46094 20.519C13.1335 20.519 16.9219 16.705 16.9219 12C16.9219 7.295 13.134 3.48102 8.46094 3.48102ZM21.9727 3.98005C19.6362 3.98005 17.7424 7.57157 17.7424 12.0001C17.7424 16.4287 19.6365 20.0204 21.9729 20.0204C24.3094 20.0204 26.2035 16.4289 26.2035 12.0001H26.2031C26.2031 7.5703 24.3094 3.98005 21.9728 3.98005H21.9727ZM28.512 4.81541C27.6905 4.81541 27.0244 8.03235 27.0244 12.0001C27.0244 15.9679 27.69 19.1849 28.512 19.1849C29.334 19.1849 30 15.9671 30 12C30 8.03207 29.3337 4.81541 28.5121 4.81541H28.512Z" fill="black"/>
</svg>
